X:1
T:Title
%%score { ( 1 4 ) | ( 2 3 ) }
L:1/8
M:4/4
K:Eb
V:1 treble nm="Grand Piano"
V:4 treble 
V:2 bass 
V:3 bass 
V:1
 z4 z2 z[Q:1/4=100] B | B2 =AB c2 BG | [DF]2 [DG][DF] E3 B | [Ec]2 ec B2 AG | Fddc [DB]2 z [AB] | %5
 [Ge]2 [Gf][Ge] B2 cB | G2 FE [Cc]3 c | e2 dc B2 cA | G2 [DA][DF] E2 z2 | B4 A2 F2 | %10
 [G,CE]4 [B,DF]4 | [B,EG]6 B2 | [Ge]4 [CAc]2 [DAB]2 | [EGB]4 [B,EG]2 [C=EB]2 | %14
 [CFA]4 [B,DA]2 [A,DF]2 |[M:7/8] [G,E]-[G,E]-[G,E]- [G,E]3 z |] %16
V:2
 z4 z2 z [E,G,E] | [E,G,E]2 [E,F,E][E,G,E] [E,A,E]2 [E,G,E][E,B,E] | %2
 [B,,A,]2 [B,,B,][B,,A,] [E,G,]3 [E,G,E] | [A,,A,]2 [A,CE][A,E] [G,B,E]2 [F,B,D][E,B,E] | %4
 .D2 z2 z4 | [E,B,]2 [E,B,][E,B,] [E,G,E]2 [E,A,E][E,G,E] | %6
 [E,B,_D]2 [E,A,D][E,G,D] [A,,A,]3[K:treble] [A,E] | [A,CE]2 [A,B,E][A,E] [G,B,E]2 [A,E][A,CF] | %8
 [B,E]2 [B,,F,][B,,A,] [E,G,]2 z2 | [E,G,E]4 B,,2- [B,,A,]2 | C,4 B,,4 | E,6 B,2 | %12
 z2 z[K:treble] d[K:bass] E,2 E,2 | E,4 E,2 C,2 | z2 z G B,,2 B,,2 |[M:7/8] E,-E,-E,- E,3 z |] %16
V:3
 x8 | x8 | x8 | x8 | [F,B,]-[F,B,F][F,=A,F][F,A,E] [B,,B,]2 z [B,D] | x8 | x7[K:treble] x | x8 | %8
 x8 | z4 F,2 z2 | x8 | x8 | [E,B,]4[K:treble][K:bass] z4 | x8 | F,4 z4 |[M:7/8] x7 |] %16
V:4
 x8 | x8 | x8 | x8 | x8 | x8 | x8 | x8 | x8 | z4 D4 | x8 | x8 | x8 | x8 | x8 |[M:7/8] x7 |] %16

